X:489
%%etbk:tnset id:208,pos:1,rep:3x,ant:
%%etbk:pldat 2014-09-04T18:53,2014-09-03T19:06,2014-09-02T18:54,2014-09-01T18:56,2014-08-31T14:17,2014-08-28T18:50,2014-08-27T19:03,2014-08-26T17:13,2014-08-24T14:52
T:Heiligenschwendi
H: Created 2013-07-19 /  Modified 2013-07-19
R: song
M:C|
L:1/8
K:Amaj
"f#m"FF2F2"E"EFG|"A"A2A6| "f#m"FF2F2"E"EFG|"A"A8|
"f#m"FF2F2"E"EFG|"A"A2A,6|"bm"CB,2B,2B,CD|"E"E8|-E6z2| 
|:"A"A,>A,C>E A>A (3AEC"D"|"D"D>D (3DCD "E"EEE2|"A"A,>A,C>E A>A (3AEC"D"|"D"D>D (3DCD "A"E>EA,2|-A,8:|


